X: 1
T: Andrew J. Lyon
C: James Gray
R: reel
B: Alex & James Gray "Tweeddale Collection" p.47 #3
N: Tune for Carlin's Loup
Z: 2017 John Chambers <jc:trillian.mit.edu>
M: C
L: 1/8
K: A
cB |\
"A"A2ce Acea | "D"A2fA "A/c#"e2Ae | "Bm"d2Bd "A"cBAc | "E"GEGB [1,3 "E7/g#"ed :|[2,4 "A"A2 :|
CB, |\
"A"A,2CE AECE | "D"D2FA d2AF | "E"E2GB edcB |"A"ABcd e2cB |
"A"A2AE CA,CE | "D"D2FA d2AF | "E"E2GB edcB | "A"A2c2 A2 ||
CB, |\
"A"A,2CE AECE | "D"D2FA d2AF | "E"E2GB edcB |"A"ABcd e2cB |
"A"A2ce Acea | "D"f2fd AFDF | "E"E2GB edcB | "A"A2c2 A2 |]
